X:4512
T:Duke of Leinster, The
R:reel
S:Bernadette FitzSimon
D:Paddy Glackin: Ceol ar an bhFidil le Paddy Glackin.
Z:id:hn-reel-175
M:C|
K:G
G2BG DGBd|dBeB dBAF|G2BG DGBd|dBAB GEDE|
G2BG DGBd|dBeB dBAB|GB~B2 dB~B2|dBAB GEDE:|
|:dega bg~g2|agbg ageg|dega bage|dBAB GED2|
dega bg~g2|agbg agef|g2fg efge|dBAB GEDE:|
